symbols/web/video_camera_back/materialsymbolsrounded/video_camera_back_wght700fill1_24px.svg

<svg xmlns="http://www.w3.org/2000/svg" height="24" width="24"><path d="M4.3 20.85q-1.325 0-2.238-.912-.912-.913-.912-2.238V6.3q0-1.325.912-2.238.913-.912 2.238-.912h11.4q1.325 0 2.238.912.912.913.912 2.238v4.2l2.625-2.625q.375-.375.875-.175t.5.75v7.1q0 .55-.5.75-.5.2-.875-.175L18.85 13.5v4.2q0 1.325-.912 2.238-.913.912-2.238.912ZM6.65 16h6.7q.5 0 .725-.45.225-.45-.075-.85l-1.8-2.375Q11.95 12 11.55 12t-.65.325L9.25 14.5l-.9-1.175Q8.1 13 7.713 13q-.388 0-.638.325L6 14.7q-.3.4-.075.85.225.45.725.45Z"/></svg>

<svg xmlns="http://www.w3.org/2000/svg" height="24" width="24"><path d="M4.3 20.85Q2.975 20.85 2.062 19.938Q1.15 19.025 1.15 17.7V6.3Q1.15 4.975 2.062 4.062Q2.975 3.15 4.3 3.15H15.7Q17.025 3.15 17.938 4.062Q18.85 4.975 18.85 6.3V10.5L21.475 7.875Q21.85 7.5 22.35 7.7Q22.85 7.9 22.85 8.45V15.55Q22.85 16.1 22.35 16.3Q21.85 16.5 21.475 16.125L18.85 13.5V17.7Q18.85 19.025 17.938 19.938Q17.025 20.85 15.7 20.85ZM6.65 16H13.35Q13.85 16 14.075 15.55Q14.3 15.1 14 14.7L12.2 12.325Q11.95 12 11.55 12Q11.15 12 10.9 12.325L9.25 14.5L8.35 13.325Q8.1 13 7.713 13Q7.325 13 7.075 13.325L6 14.7Q5.7 15.1 5.925 15.55Q6.15 16 6.65 16Z"/></svg>
